icons/crosshairs-24.svg

<svg width="24" height="24" viewBox="0 0 24 24" fill="none" xmlns="http://www.w3.org/2000/svg">
<g clip-path="url(#clip0_4_76)">
<path d="M19.5 12C19.5 7.85786 16.1421 4.5 12 4.5C7.85786 4.5 4.5 7.85786 4.5 12C4.5 16.1421 7.85786 19.5 12 19.5C16.1421 19.5 19.5 16.1421 19.5 12ZM21 12C21 16.9706 16.9706 21 12 21C7.02944 21 3 16.9706 3 12C3 7.02944 7.02944 3 12 3C16.9706 3 21 7.02944 21 12Z" fill="black"/>
<path d="M12 17.25C12.4142 17.25 12.75 17.5858 12.75 18V23C12.75 23.4142 12.4142 23.75 12 23.75C11.5858 23.75 11.25 23.4142 11.25 23V18C11.25 17.5858 11.5858 17.25 12 17.25ZM6 11.25C6.41421 11.25 6.75 11.5858 6.75 12C6.75 12.4142 6.41421 12.75 6 12.75H1C0.585786 12.75 0.25 12.4142 0.25 12C0.25 11.5858 0.585786 11.25 1 11.25H6ZM23 11.25C23.4142 11.25 23.75 11.5858 23.75 12C23.75 12.4142 23.4142 12.75 23 12.75H18C17.5858 12.75 17.25 12.4142 17.25 12C17.25 11.5858 17.5858 11.25 18 11.25H23ZM12 0.25C12.4142 0.25 12.75 0.585786 12.75 1V6C12.75 6.41421 12.4142 6.75 12 6.75C11.5858 6.75 11.25 6.41421 11.25 6V1C11.25 0.585786 11.5858 0.25 12 0.25Z" fill="black"/>
</g>
<defs>
<clipPath id="clip0_4_76">
<rect width="24" height="24" fill="white"/>
</clipPath>
</defs>
</svg>

<svg xmlns="http://www.w3.org/2000/svg" width="24" height="24" viewBox="0 0 24 24"><path d="M21 12a9 9 0 0 1-9 9 9 9 0 0 1-9-9 9 9 0 0 1 9-9 9 9 0 0 1 9 9Zm-1.5 0a7.5 7.5 0 1 0-15 0 7.5 7.5 0 0 0 15 0Z"/><path d="M12 .25a.75.75 0 0 1 .75.75v5a.75.75 0 0 1-1.5 0V1A.75.75 0 0 1 12 .25Zm-6 11a.75.75 0 0 1 0 1.5H1a.75.75 0 0 1 0-1.5Zm17 0a.75.75 0 0 1 0 1.5h-5a.75.75 0 0 1 0-1.5Zm-11 6a.75.75 0 0 1 .75.75v5a.75.75 0 0 1-1.5 0v-5a.75.75 0 0 1 .75-.75Z"/></svg>
